layouts/icon-pack/weapon_sword_one_handed.svg

<?xml version="1.0" encoding="UTF-8"?>
<svg width="1200pt" height="1200pt" version="1.1" viewBox="0 0 1200 1200" xmlns="http://www.w3.org/2000/svg">
 <g fill="#fff">
  <path d="m124.83 1075.2 55.922 55.945c3.5586 3.5586 9.332 3.5586 12.891 0l23.438-23.438c3.5586-3.5586 3.5586-9.332 0-12.891l-55.992-55.875-55.945-55.945c-3.5586-3.5586-9.332-3.5586-12.891 0l-23.438 23.438c-1.7148 1.7031-2.6758 4.0195-2.6758 6.4336 0 2.4141 0.96094 4.7305 2.6758 6.4336z"/>
  <path d="m1117.4 66.234-97.312 7.2188c-4.1133 0.30469-7.9805 2.0742-10.898 4.9922l-607.36 607.36c-1.8359 1.832-2.8672 4.3203-2.8672 6.9141s1.0312 5.082 2.8672 6.9141l25.898 25.898c3.8242 3.8242 10.027 3.8242 13.852 0l577.08-577.08c4.2891-4.4297 10.129-7.0312 16.293-7.2539 6.168-0.22266 12.176 1.9492 16.777 6.0586 4.5977 4.3008 7.2539 10.277 7.3672 16.57 0.11719 6.293-2.3203 12.363-6.7578 16.828l-577.88 577.76c-3.8242 3.8242-3.8242 10.027 0 13.852l25.898 25.898c1.832 1.8359 4.3203 2.8672 6.9141 2.8672s5.082-1.0312 6.9141-2.8672l607.36-607.36c2.918-2.918 4.6875-6.7852 4.9922-10.898l7.2188-97.312c0.32422-4.4297-1.293-8.7852-4.4336-11.926s-7.4961-4.7578-11.926-4.4336z"/>
  <path d="m221.11 1033.2c2.4844 2.4922 5.8555 3.8906 9.375 3.8906s6.8906-1.3984 9.375-3.8906l164.98-165 42.188 42.305c1.7031 1.7148 4.0195 2.6758 6.4336 2.6758 2.4141 0 4.7305-0.96094 6.4336-2.6758l37.031-37.008c3.5586-3.5586 3.5586-9.332 0-12.891l-78.773-78.797-78.727-78.656c-3.5586-3.5586-9.332-3.5586-12.891 0l-37.008 37.031c-1.7148 1.7031-2.6758 4.0195-2.6758 6.4336 0 2.4141 0.96094 4.7305 2.6758 6.4336l42.305 42.305-165 164.98c-2.4922 2.4844-3.8906 5.8555-3.8906 9.375 0 3.5195 1.3984 6.8906 3.8906 9.375z"/>
 </g>
</svg>

<?xml version="1.0" encoding="UTF-8" standalone="no"?>
<!DOCTYPE svg PUBLIC "-//W3C//DTD SVG 1.1//EN" "http://www.w3.org/Graphics/SVG/1.1/DTD/svg11.dtd">
<svg width="100%" height="100%" viewBox="0 0 512 512" version="1.1" xmlns="http://www.w3.org/2000/svg" xmlns:xlink="http://www.w3.org/1999/xlink" xml:space="preserve" xmlns:serif="http://www.serif.com/" style="fill-rule:evenodd;clip-rule:evenodd;stroke-linejoin:round;stroke-miterlimit:2;">
    <g transform="matrix(1,0,0,1,-66.1392,-66.1934)">
        <g transform="matrix(0.479554,0,0,0.479554,34.4219,34.4501)">
            <path d="M124.83,1075.2L180.752,1131.14C184.311,1134.7 190.084,1134.7 193.643,1131.14L217.081,1107.71C220.64,1104.15 220.64,1098.38 217.081,1094.82L161.089,1038.94L105.144,982.996C101.585,979.437 95.812,979.437 92.253,982.996L68.815,1006.43C67.1,1008.14 66.139,1010.45 66.139,1012.87C66.139,1015.28 67.1,1017.6 68.815,1019.3L124.83,1075.2Z" style="fill:white;fill-rule:nonzero;"/>
            <path d="M1117.4,66.234L1020.09,73.453C1015.98,73.757 1012.11,75.527 1009.19,78.445L401.83,685.805C399.994,687.637 398.963,690.125 398.963,692.719C398.963,695.313 399.994,697.801 401.83,699.633L427.728,725.531C431.552,729.355 437.755,729.355 441.58,725.531L1018.66,148.451C1022.95,144.021 1028.79,141.42 1034.95,141.197C1041.12,140.975 1047.13,143.146 1051.73,147.256C1056.33,151.557 1058.98,157.533 1059.1,163.826C1059.21,170.119 1056.78,176.189 1052.34,180.654L474.459,758.414C470.635,762.238 470.635,768.441 474.459,772.266L500.357,798.164C502.189,800 504.678,801.031 507.271,801.031C509.865,801.031 512.353,800 514.186,798.164L1121.55,190.804C1124.46,187.886 1126.23,184.019 1126.54,179.906L1133.76,82.594C1134.08,78.164 1132.46,73.809 1129.32,70.668C1126.18,67.527 1121.83,65.91 1117.4,66.234L1117.4,66.234Z" style="fill:white;fill-rule:nonzero;"/>
            <path d="M221.11,1033.2C223.594,1035.69 226.966,1037.09 230.485,1037.09C234.005,1037.09 237.376,1035.69 239.86,1033.2L404.84,868.2L447.028,910.505C448.731,912.22 451.048,913.181 453.462,913.181C455.876,913.181 458.192,912.22 459.895,910.505L496.926,873.497C500.485,869.938 500.485,864.165 496.926,860.606L418.153,781.809L339.426,703.153C335.868,699.594 330.094,699.594 326.535,703.153L289.527,740.184C287.812,741.887 286.851,744.204 286.851,746.618C286.851,749.032 287.812,751.348 289.527,753.051L331.832,795.356L166.832,960.336C164.34,962.821 162.942,966.192 162.942,969.711C162.942,973.231 164.34,976.602 166.832,979.086L221.11,1033.2Z" style="fill:white;fill-rule:nonzero;"/>
        </g>
    </g>
</svg>
